src/categories-icons-sprite/categories/svg-cat-books-stationery.svg

<svg width="21" height="34" viewBox="0 0 21 34" fill="none" xmlns="http://www.w3.org/2000/svg">
<path class="p-00D7DF" d="M17.7209 6.1784L14.6317 5.88062L13.791 14.6024H16.9089L17.7209 6.1784Z" fill="#65B3E7"/>
<path class="p-CCF7F9" d="M17.7202 6.17871L16.9082 14.6028H20.0335L20.8094 6.4765L17.7202 6.17871Z" fill="#A1D1FD"/>
<path class="p-FFE98F" d="M20.8093 6.47632L18.3156 0L19.5637 3.24122L16.4714 2.94328L18.3156 0L14.6309 5.88074L17.7201 6.17853L20.8093 6.47632Z" fill="#B9DFFC"/>
<path class="p-565659" d="M19.5639 3.24122L18.3158 0L16.4717 2.94328L19.5639 3.24122Z" fill="#4D98CB"/>
<path class="p-FFDA44" d="M4.07271 0.675049L2.01465 2.01091L2.40454 3.51288L4.65758 2.92809L4.07271 0.675049Z" fill="#4D98CB"/>
<path class="p-FF9811" d="M4.89566 8.47778L0.389648 9.64744L1.6698 14.6026H6.48547L4.89566 8.47778Z" fill="#65B3E7"/>
<path class="p-FFDA44" d="M6.48532 14.6028H11.295L9.40152 7.30835L4.89551 8.47801L6.48532 14.6028Z" fill="#A1D1FD"/>
<path class="p-565659" d="M9.4019 7.30811L9.01202 5.80614L7.27393 4.88895L5.78437 2.63599L4.65785 2.92834L2.40481 3.51314L1.27829 3.80557L0.958391 6.05853L0 8.14538L0.389887 9.64744L4.8959 8.47777L9.4019 7.30811Z" fill="#B9DFFC"/>
<path class="p-CDCDD0" d="M10.8523 29.3447C9.9952 29.3447 9.30047 28.65 9.30047 27.7929C9.30047 26.9359 9.9952 26.2412 10.8523 26.2412V22.3617C9.9952 22.3617 9.30047 21.6669 9.30047 20.8099C9.30047 19.9528 9.9952 19.2581 10.8523 19.2581V16.9304H0.765625V31.6724H10.8523V29.3447ZM4.6451 29.3447C3.78805 29.3447 3.09331 28.65 3.09331 27.7929C3.09331 26.9359 3.78805 26.2412 4.6451 26.2412C5.50215 26.2412 6.19689 26.9359 6.19689 27.7929C6.19689 28.65 5.50215 29.3447 4.6451 29.3447ZM4.6451 22.3617C3.78805 22.3617 3.09331 21.6669 3.09331 20.8099C3.09331 19.9528 3.78805 19.2581 4.6451 19.2581C5.50215 19.2581 6.19689 19.9528 6.19689 20.8099C6.19689 21.6669 5.50215 22.3617 4.6451 22.3617Z" fill="#A1D1FD"/>
<path class="p-ACABB1" d="M10.8516 19.2581C11.7086 19.2581 12.4034 19.9528 12.4034 20.8099C12.4034 21.6669 11.7086 22.3617 10.8516 22.3617V26.2412C11.7086 26.2412 12.4034 26.9359 12.4034 27.7929C12.4034 28.65 11.7086 29.3447 10.8516 29.3447V31.6724H20.9382V16.9304H10.8516V19.2581ZM17.0587 19.2581C17.9158 19.2581 18.6105 19.9528 18.6105 20.8099C18.6105 21.6669 17.9158 22.3617 17.0587 22.3617C16.2017 22.3617 15.5069 21.6669 15.5069 20.8099C15.5069 19.9528 16.2017 19.2581 17.0587 19.2581ZM17.0587 26.2412C17.9158 26.2412 18.6105 26.9359 18.6105 27.7929C18.6105 28.65 17.9158 29.3447 17.0587 29.3447C16.2017 29.3447 15.5069 28.65 15.5069 27.7929C15.5069 26.9359 16.2017 26.2412 17.0587 26.2412Z" fill="#65B3E7"/>
<path class="p-565659" d="M20.9385 16.9302L20.9385 15.6025C20.9385 15.0502 20.4908 14.6025 19.9385 14.6025L10.8519 14.6025L1.92913 14.6025C1.28636 14.6025 0.765291 15.1236 0.765291 15.7663L0.765291 16.9228C0.765291 16.9269 0.768593 16.9302 0.772665 16.9302L20.9385 16.9302Z" fill="#4D98CB"/>
<path class="p-565659" d="M0.765625 31.6724V33C0.765625 33.5523 1.21334 34 1.76562 34H10.8522H19.9388C20.4911 34 20.9388 33.5523 20.9388 33V31.6724H10.8522H0.765625Z" fill="#4D98CB"/>
<path class="p-FFFFFF" d="M4.64456 22.3616C5.50159 22.3616 6.19635 21.6669 6.19635 20.8098C6.19635 19.9528 5.50159 19.2581 4.64456 19.2581C3.78753 19.2581 3.09277 19.9528 3.09277 20.8098C3.09277 21.6669 3.78753 22.3616 4.64456 22.3616Z" fill="white"/>
<path class="p-FFFFFF" d="M10.8526 22.3616C11.7096 22.3616 12.4044 21.6669 12.4044 20.8098C12.4044 19.9528 11.7096 19.2581 10.8526 19.2581C9.99554 19.2581 9.30078 19.9528 9.30078 20.8098C9.30078 21.6669 9.99554 22.3616 10.8526 22.3616Z" fill="white"/>
<path class="p-FFFFFF" d="M17.0596 22.3616C17.9166 22.3616 18.6114 21.6669 18.6114 20.8098C18.6114 19.9528 17.9166 19.2581 17.0596 19.2581C16.2026 19.2581 15.5078 19.9528 15.5078 20.8098C15.5078 21.6669 16.2026 22.3616 17.0596 22.3616Z" fill="white"/>
<path class="p-FFFFFF" d="M4.64456 29.3448C5.50159 29.3448 6.19635 28.65 6.19635 27.793C6.19635 26.936 5.50159 26.2412 4.64456 26.2412C3.78753 26.2412 3.09277 26.936 3.09277 27.793C3.09277 28.65 3.78753 29.3448 4.64456 29.3448Z" fill="white"/>
<path class="p-FFFFFF" d="M10.8526 29.3448C11.7096 29.3448 12.4044 28.65 12.4044 27.793C12.4044 26.936 11.7096 26.2412 10.8526 26.2412C9.99554 26.2412 9.30078 26.936 9.30078 27.793C9.30078 28.65 9.99554 29.3448 10.8526 29.3448Z" fill="white"/>
<path class="p-FFFFFF" d="M17.0596 29.3448C17.9166 29.3448 18.6114 28.65 18.6114 27.793C18.6114 26.936 17.9166 26.2412 17.0596 26.2412C16.2026 26.2412 15.5078 26.936 15.5078 27.793C15.5078 28.65 16.2026 29.3448 17.0596 29.3448Z" fill="white"/>
</svg>

<svg width="21" height="34" fill="none" xmlns="http://www.w3.org/2000/svg"><path class="p-00D7DF" d="M17.72 6.178l-3.088-.297-.841 8.721h3.118l.812-8.424z" fill="#65B3E7"/><path class="p-CCF7F9" d="M17.72 6.179l-.812 8.424h3.125l.776-8.127-3.089-.297z" fill="#A1D1FD"/><path class="p-FFE98F" d="M20.81 6.476L18.315 0l1.248 3.241-3.093-.298L18.316 0 14.63 5.88l3.09.299 3.088.297z" fill="#B9DFFC"/><path class="p-565659" d="M19.564 3.241L18.316 0l-1.844 2.943 3.092.298z" fill="#4D98CB"/><path class="p-FFDA44" d="M4.073.675L2.015 2.011l.39 1.502 2.253-.585L4.073.675z" fill="#4D98CB"/><path class="p-FF9811" d="M4.896 8.478L.39 9.648l1.28 4.955h4.815l-1.59-6.125z" fill="#65B3E7"/><path class="p-FFDA44" d="M6.485 14.603h4.81L9.402 7.308l-4.506 1.17 1.59 6.125z" fill="#A1D1FD"/><path class="p-565659" d="M9.402 7.308l-.39-1.502-1.738-.917-1.49-2.253-1.126.292-2.253.585-1.127.293-.32 2.253L0 8.145l.39 1.502 4.506-1.17 4.506-1.169z" fill="#B9DFFC"/><path class="p-CDCDD0" d="M10.852 29.345a1.552 1.552 0 110-3.104v-3.88a1.552 1.552 0 110-3.103V16.93H.766v14.742h10.086v-2.327zm-6.207 0a1.552 1.552 0 110-3.104 1.552 1.552 0 010 3.104zm0-6.983a1.552 1.552 0 110-3.104 1.552 1.552 0 010 3.104z" fill="#A1D1FD"/><path class="p-ACABB1" d="M10.852 19.258a1.552 1.552 0 110 3.104v3.88a1.552 1.552 0 110 3.103v2.327h10.086V16.93H10.852v2.328zm6.207 0a1.552 1.552 0 110 3.104 1.552 1.552 0 010-3.104zm0 6.983a1.552 1.552 0 110 3.104 1.552 1.552 0 010-3.104z" fill="#65B3E7"/><path class="p-565659" d="M20.939 16.93v-1.328a1 1 0 00-1-1H1.929c-.643 0-1.164.522-1.164 1.164v1.157c0 .004.004.007.008.007h20.166zM.766 31.672V33a1 1 0 001 1H19.939a1 1 0 001-1v-1.328H.766z" fill="#4D98CB"/><path class="p-FFFFFF" d="M4.645 22.362a1.552 1.552 0 100-3.104 1.552 1.552 0 000 3.104zM10.853 22.362a1.552 1.552 0 100-3.104 1.552 1.552 0 000 3.104zM17.06 22.362a1.552 1.552 0 100-3.104 1.552 1.552 0 000 3.104zM4.645 29.345a1.552 1.552 0 100-3.104 1.552 1.552 0 000 3.104zM10.853 29.345a1.552 1.552 0 100-3.104 1.552 1.552 0 000 3.104zM17.06 29.345a1.552 1.552 0 100-3.104 1.552 1.552 0 000 3.104z" fill="#fff"/></svg>
